X:1
T:[ID 2-69]
T:[ID 2-69]
T:Bezeichnung standardisiert: Polonaise Polonoise
T:Urheber unbekannt Datum in der hier transkribierten schriftlichen Quelle: 1767
C:Urheber unbekannt
C:Datum in der hier transkribierten schriftlichen Quelle: 1767
L:1/8
M:3/4
K:G
V:1 treble 
V:1
 G2 B>G c>A | d2 B>G c>A | d3 eBc | d3 eBc | d>g (g2 f>)e | d>e e2 d>c | B(A/B/) c(B/c/) dc | %7
 B/A/G/F/{F} G4 :: a3 bfg | a3 bfg | a>f g>e f>d | ^c/d/e/c/ d2 D2 | d3 eBc | d3 eBc | %14
 d>g (g2 f>)e | B(A/B/) c(B/c/) dc | B/A/G/F/{F} G4 :| %17

